!!!!SEGMENT: pl-cz--iii-50--001-009_brykner-jerzy--vesperae-lauda-jerusalem.krn
!!!cenid: 17xx:851
!!!COM: Brykner, Jerzy
!!!COM-rismID: pe30025739
!!!CDT: 1705-1760
!!!CNT: Polish
!!!OPR: Vesperae
!!!OTL: Lauda Jerusalem
!!!OMV: 009
!!!PDT:
!!!AGN: Sacred; Vespers
!!!YEC: Copyright 2022 Narodowy Instytut Fryderyka Chopina (https://polishscores.org)
!!!YEM: License CC-BY-4.0 (https://creativecommons.org/licenses/by/4.0)
!!!SMS-siglum: PL-CZ
!!!SMS-shelfmark: III-50
!!!SMS-shelfwork: 001-009 M
!!!SMS-variant:
!!!SMS-altvar:
!!!NIFC-rismSourceID: 300033583
!!!NIFC-rismChildID: 300033583
!!!NIFC-islandoraID: pl-cz:38729
!!!URL-pdf-islandora: https://repozytorium.nifc.pl/islandora/object/pl-cz%3A38729/datastream/PDF/view
!!!URL-scan: https://polish.musicsources.pl/pl/lokalizacje/galeria/rekopisy/6940/1 @EN{Scan on Polish Music Sources Website} @PL{Skany w portalu Dziedzictwo Muzyki Polskiej w otwartym dostępie}
!!!IIIF:
!!!ONB-nifc: UWAGA: części Vesperae: Dixit Dominus, Confitebor, Beatus vir, Laudate pueri, Laudate Dominum, In exitu, Laetatus sum, Nisi Dominus, Lauda Jerusalem, Credidi, In convertendo, Domine probasti me, Memento Domine David, Confitebor, De profundis, Beati omnes, Magnificat
!!!AIN: 1 empty 1 organ 2 violn 1 vox
!!!key:
**kern	**fb	**kern	**kern	**kern	**text	**kern	**text
*group	*	*group2	*group2	*group1	*	*group1	*
*part5	*	*part4	*part3	*part2	*	*part1	*
*staff5	*	*staff4	*staff3	*staff2	*	*staff1	*
*Iorgan	*	*Ivioln	*Ivioln	*Iempty	*	*Ivox	*
*I"Organo.	*	*I"Violino Secundo.	*I"Violino Primo.	*I"Baſso.	*	*I"Canto.	*
*I'org	*	*I'vl 2	*I'vl 1	*I'B	*	*I'S	*
*clefF4	*	*clefG2	*clefG2	*clefF4	*	*clefC1	*
*k[b-e-]	*	*k[b-e-]	*k[b-e-]	*k[b-e-]	*	*k[b-e-]	*
*B-:	*	*B-:	*B-:	*B-:	*	*B-:	*
*M3/2	*	*M3/2	*M3/2	*M3/2	*	*M3/2	*
=1	=1	=1	=1	=1	=1	=1	=1
*2\right	*	*2\right	*2\right	*2\right	*	*2\right	*
*	*above	*	*	*	*	*	*
!LO:TX:a:i:t=Tutti	!	!	!	!	!	!	!
!LO:TX:a:i:t=Lauda Jerusalem.	!	!LO:TX:b:i:t=Lauda Jerusalem.	!LO:TX:b:i:t=Lauda Jerusalem.	!	!	!LO:TX:a:t=P:problem=w źródle kolejność krzyżyków - b-, ee-	!
!	!	!LO:TX:a:t=P:problem=w źródle kolejność krzyżyków - ee-, b-	!	!	!	!	!
2B-\	.	4dd\	4dd\	2B-\	Lau-	2dd\	Lau-
.	.	4bb-\	4bb-\	.	.	.	.
2A\	.	4cc\	4cc\	2A\	-da	2cc\	-da
.	.	4aa\	4aa\	.	.	.	.
2G\	.	4b-\	4b-\	2G\	Ie-	2b-\	Ie-
.	.	4gg\	4gg\	.	.	.	.
=2	=2	=2	=2	=2	=2	=2	=2
2.F\	.	8a/L	8a/L	2.F\	-ru-	2.a\	-ru-
.	.	8f/	8f/	.	.	.	.
.	.	8g/	8g/	.	.	.	.
.	.	8a/J	8a/J	.	.	.	.
.	.	8b-\L	8b-\L	.	.	.	.
.	.	8cc\	8cc\	.	.	.	.
4E-\	.	8dd\	8dd\	4E-\	-sa-	4a\	-sa-
.	.	8ee-\J	8ee-\J	.	.	.	.
2D\	X 6	4ff\	4ff\	2D\	-lem	[>2b-\	-lem
.	.	8gg\L	8gg\L	.	.	.	.
.	.	8aa\J	8aa\J	.	.	.	.
=3	=3	=3	=3	=3	=3	=3	=3
2G\	.	4bb-\	4bb-\	(>2G\	Do-	4b-\]	.
.	.	4dd\	4dd\	.	.	4ee-,\	.
2E-\	6 5	4cc\	4cc\	2E-\)	.	2.cc\	Do-
.	.	4bb-\	4bb-\	.	.	.	.
2F\	.	4cc\	4cc\	2F\	-mi-	.	.
.	.	4aa\	4aa\	.	.	4cc\	-mi-
=4	=4	=4	=4	=4	=4	=4	=4
4BB-/	.	4bb-\	4bb-\	4BB-/	-nu(m),	4dd,\	-nu(m),
2B-\	.	2ff\	2ff\	2B-\	lau-	2dd\	lau-
2G\	.	2bb-\	2bb-\	2G\	-da	2gg,\	-da
[>4c\	.	[>4gg\	[>4gg\	[>4c\	De-	[>4ee-\	De-
=5	=5	=5	=5	=5	=5	=5	=5
4c\]	.	4gg\]	4gg\]	4c\]	.	4ee-\]	.
2A\	X 6	2ccc\	2ccc\	2A,\	-um	2ff\	-um
2B-\	.	2ff\	2ff\	2B-\	tu-	2dd\	tu-
4G\	.	[>4bb-\	[>4bb-\	4G\	-um	[>4ee-\	.
!	!	!LO:LB:g=original	!LO:LB:g=original	!	!	!	!
=6	=6	=6	=6	=6	=6	=6	=6
2E-\	X 6	4bb-\]	4bb-\]	(>2E-\	Si-	4ee-\]	.
.	.	8aa\L	8aa\L	.	.	4cc\	-um
.	.	8gg\J	8gg\J	.	.	.	.
*	*	*	*	*	*	*custos:b	*
1F	X 4	2bb-\	2bb-\	1F)	.	1cc	Si-
.	X 3	2aa\	2aa\	.	.	.	.
!	!	!	!	!	!	!LO:LB:g=original	!
=7	=7	=7	=7	=7	=7	=7	=7
1BB-	.	1bb-	1bb-	1BB-	-on	2b-\	-on,
.	.	.	.	.	.	2.dd\	Quo-
!LO:TX:a:i:t=ſolo.	!	!	!	!	!	!	!
!	!	!	!	!LO:LB:g=original	!	!	!
2B-\	.	2r	2r	4r	.	.	.
.	.	.	.	[>4B-\	be-	8cc\	-ni-
.	.	.	.	.	.	8b-\	-am
!LO:LB:g=original	!	!	!	!	!	!	!
=8	=8	=8	=8	=8	=8	=8	=8
!	!	!LO:N:vis=00	!LO:N:vis=00	!	!	!	!
2F\	X 4	00.r	00.r	4B-\]	.	4cc\	con-
.	X 3	.	.	4A\	-ne-	4f/	-for-
.	X 9	.	.	.	.	.	.
2G\	X 8	.	.	4A\	-di-	2.b-\	-ta-
.	.	.	.	8G\L	-xit	.	.
.	.	.	.	8F\J	.	.	.
2C/	X 7	.	.	8En\L	fi-	.	.
.	.	.	.	8F\J	.	.	.
.	.	.	.	[<4G\	.	8a\L	-vit
.	.	.	.	.	.	8g\J	.
=9	=9	=9	=9	=9	=9	=9	=9
2.F\	X 9	.	.	4G\]	.	2a\	se-
.	X 8	.	.	8F\	-li-	.	.
!	!	!	!	!	!LO:MO:mod=is	!	!
.	X 6	.	.	8F\	-js	.	.
.	.	.	.	(>4G\	tu-	4d/	-ras
4B-\	.	.	.	4B-\)	.	4dd\	por-
4A\	.	.	.	4A\	.	(>4cc\	-ta-
4G\	.	.	.	4G\	.	4b-\)	.
=10	=10	=10	=10	=10	=10	=10	=10
4F\	.	.	.	(>4F\	-is	4a\	-rum
4AA/	X 6	.	.	4D\)	.	8g/L	tu-
.	.	.	.	.	.	8f/J	.
2BB-/	6 5	.	.	(>2F\	in	1g	-a-
2C/	X n	.	.	2En\)	.	.	.
=11	=11	=11	=11	=11	=11	=11	=11
2F\	.	.	.	4F,\	te,	2f/	-rum,
.	.	.	.	4F\	qui	.	.
2D\	X 6	.	.	8B-\L	po-	4r	.
.	.	.	.	8c\	.	.	.
.	.	.	.	8B-\	.	4dd\	et
.	.	.	.	8A\J	.	.	.
2E-\	X 3	.	.	4G\	.	4b-\	a-
.	X 6	.	.	8c\	-su-	4cc\	-di-
.	.	.	.	8c\	-it	.	.
=12	=12	=12	=12	=12	=12	=12	=12
4F\	.	1.r	1.r	4F\	fi-	4a\	-pe
8B-\L	.	.	.	4B-\	-nes	4dd\	fru-
8A\J	.	.	.	.	.	.	.
!	!	!	!	!LO:LB:g=original	!	!	!
4G\	.	.	.	4G\	tu-	4b-\	-me(n)-
4F\	.	.	.	4F\	-os	4a,\	-ti
2E-\	X 7	.	.	2E-\	pa-	4g\	sa-
.	X 6	.	.	.	.	8g\	-ti-
.	.	.	.	.	.	8g\	-at
=13	=13	=13	=13	=13	=13	=13	=13
*	*	*	*	*	*	*custos:b	*
2D\	X #	2r	2r	2D,\	-cem,	2f#X/	te,
*	*	*	*	*	*	*custos:b	*
!	!	!	!	!	!	!LO:LB:g=original	!
!LO:TX:a:t=T.	!	!	!	!	!	!	!
4BB-/	.	2r	8b-\L	4BB-/	qui	4b-\	Qui
.	.	.	8cc\	.	.	.	.
4B-\	.	.	8dd\	4B-\	e-	4dd\	e-
.	.	.	8ee-\J	.	.	.	.
2A\	X 6	8f/L	4ff\	4A\	-mit-	4cc\	-mit-
.	.	8f/	.	.	.	.	.
.	.	8g/	8cc\L	8A\	-tit	8f#,/	-tit
.	.	8a/J	8dd\J	8A\	e-	8f#/	e-
=14	=14	=14	=14	=14	=14	=14	=14
4G\	X 6	4b-/	8ee-\L	4G\	-lo-	4ee-\	-lo-
.	.	.	8ee-\	.	.	.	.
4E-\	.	8g/L	8ff\	8E-\	-qui-	8dd\	-qui-
.	.	8a/J	8gg\J	8E-\	-um	8cc\	-u(m)
4G\	.	4b-/	4ee-\	4G\	su-	4b-\	ſu-
4A\	.	4cc/	4ff\	4A\	-um	4cc\	-um
4B-\	.	2b-/	2dd\	2B-\	ter-	2dd\	ter-
4BB-/	.	.	.	.	.	.	.
!LO:LB:g=original	!	!	!	!	!	!	!
=15	=15	=15	=15	=15	=15	=15	=15
2F\	.	4a/	4cc\	4F\	-rae	4cc\	-rae
.	.	4cc/	4ff\	4F\	ve-	4ff\	ve-
2BB-/	.	8b-/L	8ff\L	8B-\L	-lo-	8dd\L	-lo-
.	.	8cc/	8ff\	8A\	.	8cc\	.
.	.	8b-/	8ff\	8G\	.	8b-\	.
.	.	8a/J	8ff\J	8F\J	.	8a\J	.
4E-\	.	4g/	4gg\	4E-\	.	4g\	.
4D\	.	4b-/	4bb-\	8D\	-ci-	8g\	-ci-
.	.	.	.	8D\	-ter	8g\	-ter
=16	=16	=16	=16	=16	=16	=16	=16
4C/	X 7	2.ee-\	4bb-\	4C/	cur-	2.ee-\	cur-
4F\	X 7	.	4aa\	4F\	-rit	.	.
2BB-/	5 4	.	4bb-\	2BB-/	ſer-	.	.
!	!	!	!LO:LB:g=original	!	!	!	!
.	6 3	4dd\	4ff\	.	.	2dd\	-rit
2C/	9 5	4g/	4.ee-\	2C/	.	.	.
.	8 6	4a/	.	.	.	[>4cc\	ſer-
.	.	.	8ee-\	.	.	.	.
!	!	!LO:LB:g=original	!	!	!	!	!
=17	=17	=17	=17	=17	=17	=17	=17
4D\	7 #	4f#X/	4.dd\	(>4D\	-mo	4cc\]	.
4G\	.	4g/	.	4G\)	.	4b-\	-mo
.	.	.	16cc\LL	.	.	.	.
.	.	.	16b-\JJ	.	.	.	.
*	*reverse	*	*	*	*	*	*
1D	X 4#	2g/	1a	1D	e-	1a	e-
*	*Xreverse	*	*	*	*	*	*
.	.	2f#X/	.	.	.	.	.
!	!	!	!	!LO:LB:g=original	!	!	!
=18	=18	=18	=18	=18	=18	=18	=18
1GG	.	1g	1g	1GG	-jus.	2g\	-jus,
.	.	.	.	.	.	4b-\	qui
.	.	.	.	.	.	4b-\	dat
!LO:TX:a:i:t=ſolo.	!	!	!	!	!	!	!
2C/	X 7	2r	2r	2r	.	8b-\L	ni-
.	X 6-	.	.	.	.	8a-X\J	.
.	.	.	.	.	.	4a-\	-vem
!	!	!	!	!	!	!LO:LB:g=original	!
=19	=19	=19	=19	=19	=19	=19	=19
!	!	!LO:N:vis=0	!LO:N:vis=0	!	!	!	!
2D\	6 5	0.r	0.r	1.r	.	8a-X\L	si-
.	.	.	.	.	.	8cc\J	.
.	.	.	.	.	.	8b-\L	-cut
.	.	.	.	.	.	8a-\J	.
!	!	!	!	!LO:TX:a:t=I	!	!	!
2E-\	.	.	.	.	.	4g/	la-
.	.	.	.	.	.	4e-/	-na(m),
2G\	X 6	.	.	.	.	4ee-\	ne-
.	.	.	.	.	.	8b-\	-bu-
.	.	.	.	.	.	8b-\	-la(m)
=20	=20	=20	=20	=20	=20	=20	=20
4A-X\	.	.	.	4r	.	4cc\	si-
4F\	.	.	.	4F\	Mit-	8a-X\L	-cut
.	.	.	.	.	.	8g\J	.
4D\	X 6	.	.	4B-,\	-tit	4f/	ci-
4E-\	.	.	.	4B-\	crys-	8g/	-ne-
.	.	.	.	.	.	8g/	-rem
2AA-X/	X 7	.	.	4c\	-tal-	(<4g/	ſpar-
.	X 6	.	.	4c\	-lum	4f/)	.
!LO:LB:g=original	!	!	!	!	!	!	!
=21	=21	=21	=21	=21	=21	=21	=21
*custos:GG	*	*	*	*	*	*	*
2GG/	.	4bn/	4dd\	4Bn\	su-	2g/	-git.
.	.	8dd\L	8bn\L	4B\	-am	.	.
.	.	8b\J	8dd\J	.	.	.	.
4E-\	X 6	4g/	4g/	4c\	si-	2r	.
4F\	X -	4cc\	2aa-X\	8A-X\	-cut	.	.
.	.	.	.	8c\	buc-	.	.
4D\	.	4b-X\	.	4F\	-cel-	2r	.
8E-\L	.	8ee-\L	8gg\L	8G\L	-las	.	.
8F\J	.	8dd\J	8ff\J	8A-X\J	.	.	.
=22	=22	=22	=22	=22	=22	=22	=22
!	!	!	!	!	!	!LO:N:vis=0	!
4G\	X 6	4ee-\	4ee-\	4B-\	an-	0.r	.
4C/	.	4cc\	4ee-\	4c\	-te	.	.
2D\	X 7	4f/	4.ffT\	4c\	fa-	.	.
.	X 6	4b-/	.	8B-\	-ci-	.	.
!	!	!	!	!	!	!LO:TX:a:t=2.	!
.	.	.	16ee-\LL	8B-\	-em	.	.
.	.	.	16ff\JJ	.	.	.	.
4En\	6 5	4cc\	4gg\	4B-\	fri-	.	.
4F\	X -	4cc\	8aa-X\L	8A-X\	-go-	.	.
.	.	.	8ff\J	8A-\	-ris	.	.
=23	=23	=23	=23	=23	=23	=23	=23
!	!	!	!	!LO:SIC:o=4A\	!	!	!
4BB-/	X 7	4b-/	4dd\	8A-	e-	.	.
4E-\	.	8g/L	4ee-\	4G\	-jus,	.	.
.	.	8a/J	.	.	.	.	.
2BB-/	.	4b-/	4dd\	2F\	quis	.	.
.	.	4b-/	4dd\	.	.	.	.
8qqC/	.	.	.	.	.	.	.
4BB-/	.	4r	4r	4r	{quis}	.	.
*	*	*	*	*	*ij	*	*
*	*	*	*custos:EE-	*	*	*	*
4ryy	.	8b-/L	4ff\	4D	quis	.	.
*	*	*	*	*	*Xij	*	*
.	.	8a-X/J	.	.	.	.	.
!	!	!	!LO:LB:g=original	!LO:LB:g=original	!	!	!
=24	=24	=24	=24	=24	=24	=24	=24
*	*	*	*custos:ee	*	*	*	*
4C/	.	4g/	4ee-\	4E-\	su-	2r	.
4AA-X/	.	4cc\	8dd\L	4AA-X/	-sti-	.	.
.	.	.	8cc\J	.	.	.	.
1BB-	X 4	2g/	2ee-\	1BB-	-ne-	4r	.
.	X 3	.	.	.	.	4b-\	E-
.	.	2f/	2dd\	.	.	4b-\	-mit-
.	.	.	.	.	.	4a-X\	-tet
!	!	!LO:LB:g=original	!	!	!	!	!
=25	=25	=25	=25	=25	=25	=25	=25
2E-\	.	2e-/	2ee-\	2E-\	-bit	4g/	ver-
.	.	.	.	.	.	8f/L	-bum
.	.	.	.	.	.	8e-/J	.
2A-X\	.	2r	2r	4r	.	2cc\	ſu-
.	.	.	.	2A-X\	fla-	.	.
2E-\	X 4	2r	2r	.	.	4b-,\	-u(m),
.	X 3	.	.	4G\	-bit	4b-\	et
!	!	!	!	!	!	!LO:LB:g=original	!
=26	=26	=26	=26	=26	=26	=26	=26
!	!	!LO:N:vis=0	!LO:N:vis=0	!	!	!	!
2C/	.	0.r	0.r	4c\	Spi-	4ee-\	li-
.	.	.	.	8G\	-ri-	4cc\	-que-
.	.	.	.	8G\	-t(us)	.	.
4F\	X n	.	.	(>4An\	e-	8an\L	-fa-
.	.	.	.	.	.	8f\	.
4E-\	.	.	.	4G\)	.	8g\	.
.	.	.	.	.	.	8a\J	.
4D\	.	.	.	4F,\	-jus,	8b-\L	.
.	.	.	.	.	.	8a\	.
4C\	.	.	.	4E-\	et	8b-\	.
.	.	.	.	.	.	8cc\J	.
=27	=27	=27	=27	=27	=27	=27	=27
4BB-/	.	.	.	4D\	flu-	4dd\	.
4E-\	.	.	.	4G,\	-ent	8cc\	-ci-
.	.	.	.	.	.	8b-\	-et
2F\	6 4	.	.	(<2D/	a-	(>2b-\	e-
!LO:TX:b:i:t=Volti ſubito.	!	!	!	!	!	!	!
2FF/	5 3	.	.	2C/)	.	2a\)	.
!LO:PB:g=original	!	!	!	!	!	!	!
=28	=28	=28	=28	=28	=28	=28	=28
2BB-/	.	4r	4r	2BB-,/	-quae,	2b-\	-a.,
.	.	8b-/L	8dd\L	.	.	.	.
.	.	8cc/J	8ee-\J	.	.	.	.
!LO:TX:a:i:t=T.	!	!	!	!	!	!	!
2BB-/	.	4dd\	4ff\	2BB-/	qui	2dd\	qui
.	.	4dd\	4ff\	.	.	.	.
2D/	.	4dd\	4ff\	2D/	an-	2dd\	an-
.	.	4ff\	4bb-\	.	.	.	.
=29	=29	=29	=29	=29	=29	=29	=29
2F\	.	8cc/L	8aa\L	4.F\	-nun-	4.cc\	-nun-
.	.	8b-/J	8gg\J	.	.	.	.
.	.	2a/	2ff\	.	.	.	.
.	.	.	.	8F\	-ti-	8cc\	-ti-
4FF/	.	.	.	4F\	-at	4cc\	-at
4B-\	.	4dd\	4ff\	(>4B-\	ver-	(>4dd\	ver-
4G\	.	4b-/	4bb-\	4G\	.	4b-\)	.
*	*	*	*	*custos:d	*	*	*
4E-\	.	4cc\	4gg\	4E-\)	-bum	4cc\	-bum
!	!	!	!	!LO:LB:g=original	!	!	!
=30	=30	=30	=30	=30	=30	=30	=30
*	*	*	*	*custos:D	*	*	*
4D\	X 7	4cc\	4ff\	4D\	su-	4cc\	su-
4G\	.	4b-/	4bb-\	4G\	-um	4b-\	-u(m)
.	.	.	8qqff/	.	.	.	.
1C	X 7	2b-/	1ee-	1C	Ia-	(>2b-\	Ia-
.	X 6	2a/	.	.	.	2a\)	.
=31	=31	=31	=31	=31	=31	=31	=31
2BB-/	.	2b-/	2dd\	2BB-/	-cob,	2b-\	-cob,
4r	.	4r	4r	4r	.	4r	.
4B-\	.	4ff\	2bb-\	4B-\	Iu-	4dd\	Iu-
!	!	!	!	!	!	!LO:LB:g=original	!
4En\	X 6	4gg\	.	4En\	-sti-	4cc\	-sti-
4F\	.	8ff\L	4aa\	8F\	-ti-	8b-\	-ti-
.	.	8een\J	.	8F\	-as,	8a\	-as,
=32	=32	=32	=32	=32	=32	=32	=32
4G\	.	4dd\	4gg\	4G\	et	4b-\	et
4D\	.	4dd\	4ff\	4D\	ju-	4b-\	Iu-
4En\	6 5	4cc\	4een\	4En\	-di-	4b-\	-di-
!	!	!	!LO:LB:g=original	!	!	!	!
4F\	.	4a/	8dd\L	8F\	-ci-	8a\	-ci-
.	.	.	8cc\J	8F\	-a	8a\	-a
4D\	X 6	4f/	4ff\	4D/	su-	2dd\	ſu-
4BB-\	.	4b-/	4dd\	4BB-/	-a	.	.
!	!	!LO:LB:g=original	!	!	!	!	!
=33	=33	=33	=33	=33	=33	=33	=33
4C/	X n	4g/	4een\	4C/	Is-	(>4g\	-a
4AA/	X 6	4a/	2ff\	4AA/	.	4a\)	.
!	!	!LO:TX:a:t=P:problem=w źródle łuczek nad tr	!	!	!	!	!
1GG	6 7	1b-T	.	2.GG/	.	2.b-\	Is-
.	X 6/	.	8ee\L	.	.	.	.
.	.	.	8dd\J	.	.	.	.
.	.	.	2ee\	.	.	.	.
.	.	.	.	4GG/	-rȧ-	4b-\	-rȧ-
=34	=34	=34	=34	=34	=34	=34	=34
4FF/	.	2a/	2ff\	2FF/	-ėl.	4a\	-ėl,
.	X 3	.	.	.	.	.	.
!LO:TX:a:i:t=ſolo.	!	!	!	!	!	!	!
2F\	4 2	.	.	.	.	4cc\	non
.	.	2r	2r	2r	.	8b-\L	fe-
.	.	.	.	.	.	8a\J	.
4En\	.	.	.	.	.	8b-\L	-cit
.	.	.	.	.	.	8cc\J	.
*custos:G	*	*	*	*	*	*	*
2F\	.	4r	4r	2r	.	4a\	ta-
.	.	4f/	4a/	.	.	8g\	-li-
.	.	.	.	.	.	8f\	-ter
!LO:LB:g=original	!	!	!	!	!	!	!
=35	=35	=35	=35	=35	=35	=35	=35
*custos:G	*	*	*	*	*	*	*
!	!	!	!	!LO:TX:a:t=2.	!	!	!
!	!	!	!	!LO:N:vis=0	!	!	!
4G\	.	4b-/	4b-/	0.r	.	4ee-\	om-
4F\	.	4a/	4a/	.	.	4dd\	-ni
4E-X\	.	8g/L	8g/L	.	.	4gg\	na-
.	.	8a/J	8a/J	.	.	.	.
4D\	.	2b-/	2b-/	.	.	4ff\	-ti-
4C\	.	.	.	.	.	2ee-\	-o-
4F\	.	4a/	4a/	.	.	.	.
=36	=36	=36	=36	=36	=36	=36	=36
2BB-/	.	4b-/	4b-/	.	.	4dd\	-ni,
.	.	4b-/	4b-/	.	.	8dd\	et
.	.	.	.	.	.	8ee-\	ju-
*	*	*	*	*	*	*custos:ee-	*
4D/	.	4b-/	4b-/	.	.	4ff\	-di-
*	*	*	*	*	*	*custos:ee	*
!	!	!	!	!	!	!LO:LB:g=original	!
4BB-/	.	4b-/	4b-/	.	.	8ee-\	-ci-
.	.	.	.	.	.	8dd\	-a
4F\	.	4a/	4a/	.	.	4cc\	ſu-
4FF/	.	4a/	4a/	.	.	4cc\	-a
=37	=37	=37	=37	=37	=37	=37	=37
2D\	X 6	4r	4r	2r	.	4r	.
.	.	4f/	4f/	.	.	4f/	non
4E-\	.	4e-/	4e-/	2r	.	4g/	ma-
4C\	X 6	4f/	4f/	.	.	8a\	-ni-
.	.	.	.	.	.	8a\	-fe-
4BB-/	.	4f/	4f/	4F\	Glo-	[>2b-\	-sta-
*	*	*	*custos:b-	*	*	*	*
4D/	.	[>4b-/	[>4b-/	8F\	-ri-	.	.
.	.	.	.	8F\	-a	.	.
!	!	!	!LO:PB:g=original	!LO:LB:g=original	!	!	!
=38	=38	=38	=38	=38	=38	=38	=38
*	*	*	*custos:b	*	*	*	*
4E-\	.	4b-/]	4b-\]	4G\	Pat-	4b-\]	.
4C/	.	8cc\L	8cc\L	8G\	-ri,	8cc\L	-vit
.	.	8dd\J	8dd\J	8G\	et	8dd\J	.
2F\	6 4	4f/	4f/	(>4F\	Fi-	(>2b-\	e-
*	*	*	*Xtuplet	*	*	*	*
!	!	!LO:TUP:a:problem=klamra łukowa	!LO:TUP:a:problem=klamra łukowa	!	!	!	!
.	.	12dd\L	12dd\L	4C\)	.	.	.
.	.	12cc\	12cc\	.	.	.	.
.	.	12b-\J	12b-\J	.	.	.	.
2FF/	5 3	2cc\	2ccT\	(>4F\	-li-	2a\)	.
.	.	.	.	4E-\)	.	.	.
!	!	!LO:LB:g=original	!	!	!	!	!
=39	=39	=39	=39	=39	=39	=39	=39
2BB-/	.	4b-/	4b-\	2D\	-o,	2b-\	-is.
.	.	2dd\	2dd\	.	.	.	.
2G\	.	.	.	2.B-\	et	2r	.
.	.	2gg\	2gg\	.	.	.	.
2En\	6 5	.	.	.	.	2r	.
.	.	8aa\L	8aa\L	8A\L	Spi-	.	.
.	.	8bb-\J	8bb-\J	8G\J	.	.	.
=40	=40	=40	=40	=40	=40	=40	=40
4F\	X 6	4dd\	4dd\	4A\	-ri-	1.r	.
4G\	.	8een\L	12ff\L	8D\	-tu-	.	.
.	.	.	12een\	.	.	.	.
!	!	!	!	!	!	!LO:TX:a:t=1.	!
.	.	8ff\J	.	8En\	-i	.	.
.	.	.	12dd\J	.	.	.	.
2A\	X 4	2dd\	2dd\	(>2F\	San-	.	.
2AA/	X #	2cc#X\	2cc#X\	2En\)	.	.	.
=41	=41	=41	=41	=41	=41	=41	=41
2D\	.	2dd\	2dd\	2D\	-cto,	2r	.
!LO:TX:a:t=T.	!	!	!	!	!	!	!
4BB-/	.	4dd\	4ff\	4BB-/	Si-	4dd\	Si-
4B-\	.	4dd\	4ff\	4B-\	-cut	4dd\	-cut
4A\	X 6	4cc\	4ff\	4A\	e-	4cc\	e-
4F\	.	4ff\	8gg\L	4F\	-rat	4ff\	-rat
.	.	.	8aa\J	.	.	.	.
!LO:LB:g=original	!	!	!	!	!	!	!
=42	=42	=42	=42	=42	=42	=42	=42
4G\	X 6-	4ee-\	4bb-\	4G\	in	4ee-\	in
4A\	.	8dd\L	8aa\L	4A\	prin-	8dd\L	prin-
.	.	8cc\J	8gg\J	.	.	8cc\J	.
2B-\	.	4.dd\	4.ff\	4.B-\	-ci-	4.dd\	-ci-
.	.	8dd\	8gg\	8B-\	-pi-	8dd\	-pi-
4F\	.	4cc\	4aa\	4F,\	-o,	4cc,\	-o,
4BB-/	.	4dd\	8bb-\L	4BB-/	et	4dd\	et
.	.	.	8aa\J	.	.	.	.
!	!	!	!LO:LB:g=original	!	!	!LO:LB:g=original	!
=43	=43	=43	=43	=43	=43	=43	=43
4C/	.	4ee-\	4gg\	4C/	nu(n)c,	4ee-,\	nunc,
4D/	X #	2dd\	4ff#X\	4D/	et	4dd\	et
2E-\	X 7	.	2gg\	2E-\	ſem-	(>4dd\	sem-
.	X 6	4cc\	.	.	.	4cc\)	.
4D/	X #	4dd\	4ff#X\	4D\	-per,	4dd,\	-per,
!	!	!	!	!LO:LB:g=original	!	!	!
4BBn/	X 6	8dd\L	8gg\L	8BBn/	et	8dd\	et
.	.	8dd\J	8gg\J	8BB/	in	8dd\	in
!	!	!LO:LB:g=original	!	!	!	!	!
=44	=44	=44	=44	=44	=44	=44	=44
4C/	.	8ee-\L	8gg\L	4C/	ſae-	4ee-\	ſae-
.	.	8ee-\	8gg\	.	.	.	.
4C/	.	8ee-\	8gg\	8C/	-cu-	8cc\	-cu-
.	.	8ee-\J	8gg\J	8C/	-la	8cc\	-la
4AA/	X 6	8cc\L	8ff\L	4AA/	ſae-	4f/	ſae-
.	.	8cc\	8ff\	.	.	.	.
4AA/	.	8cc\	8ff\	4AA/	-cu-	4cc\	-cu-
.	.	8cc\J	8ff\J	.	.	.	.
4BB-/	.	8dd\L	8ff\L	4BB-/	-lo-	4dd\	-lo-
.	.	8dd\	8ff\	.	.	.	.
4BB-/	.	8dd\	8ff\	4BB-/	-ru(m)	4dd\	-ru(m)
.	.	8dd\J	8ff\J	.	.	.	.
=45	=45	=45	=45	=45	=45	=45	=45
[>2E-\	X 7	8dd\L	4gg\	[>2E-\	A-	8dd\L	A-
.	X 6	8b-\	.	.	.	8b-\	.
.	.	8cc\	[>4gg\	.	.	8cc\	.
.	.	8dd\J	.	.	.	8dd\J	.
4E-\]	.	4cc\	8gg\L]	8E-\L]	.	[>2cc\	.
.	.	.	8ee-\	8C\	.	.	.
4C\	.	[>4cc\	8ff\	8D\	.	.	.
.	.	.	8gg\J	8E-\J	.	.	.
[>2D\	X 7	8cc\L]	4ff\	[>2D\	.	8cc\L]	.
.	.	8a\	.	.	.	8a\	.
.	.	8b-\	[>4ff\	.	.	8b-\	.
.	.	8cc\J	.	.	.	8cc\J	.
=46	=46	=46	=46	=46	=46	=46	=46
4D\]	X 6	4b-\	4ff\]	4D\]	.	4b-\	.
8E-\L	.	[>4ff\	8gg\L	8E-\L	.	4b-,\	-men
8F\J	.	.	8aa\J	8F\J	.	.	.
2.G\	X 7	8ff\L]	4bb-\	[>2G\	.	[>2b-\	A-
.	X 6	8dd\	.	.	.	.	.
.	.	8ee-\	[>4bb-\	.	.	.	.
.	.	8ff\J	.	.	.	.	.
.	.	4ee-\	8bb-\L]	8G\L]	.	8b-\L]	.
.	.	.	8gg\	8E-\	.	8g\	.
4E-\	.	[>4ee-\	8aa\	8F\	.	8a\	.
.	.	.	8bb-\J	8G\J	.	8b-\J	.
=47	=47	=47	=47	=47	=47	=47	=47
4F\	X 7	4ee-\]	4aa\	4F\	.	4a\	.
4B-\	.	4dd\	4bb-\	4B-,\	-men	4b-\	-men
1F	X 4	2dd\	2bb-\	1F	a-	(>2b-\	A-
.	X 3	2cc\	2aa\	.	.	2a\)	.
=48	=48	=48	=48	=48	=48	=48	=48
1.BB-	.	1.b-	1.bb-	1.BB-	-men	1.b-	-men.
==;	==;	==;;	==;;	==;;	==	==;	==
*-	*-	*-	*-	*-	*-	*-	*-
!!!system-decoration: [g1][g2]s5
!!!RDF**kern: > = above
!!!RDF**kern: < = below
!!!EED: Antoni Szymański
!!!EEV: 2020-12-30
!!!ENC: Kamil Watkowski
!!!END: 2020-06-25
